!!!!SEGMENT: pl-wtm--r-1404--003_stefani-jozef--mazur-zgoda.krn
!!!cenid: 18xx:2421
!!!COM: Stefani, Józef
!!!COM-rismID: pe30024097
!!!CDT: 1800/04/16-1876/03/19
!!!CNT: Polish
!!!OTL: Mazur zgoda
!!!PDT: 1842
!!!AGN: Secular; Mazurka
!!!SMS-siglum: PL-Wtm
!!!SMS-shelfmark: R 1404
!!!SMS-shelfwork: 003 W
!!!SMS-variant:
!!!SMS-altvar:
!!!NIFC-rismSourceID: 1001117933
!!!NIFC-islandoraID: pl-wtm:25463
!!!URL-pdf-islandora: https://repozytorium.nifc.pl/islandora/object/pl-wtm%3A25463/datastream/PDF/view
!!!URL-scan: https://polish.musicsources.pl/pl/lokalizacje/galeria/rekopisy/6234 @EN{Scan on Polish Music Sources Website} @PL{Skany w portalu Dziedzictwo Muzyki Polskiej w otwartym dostępie}
!!!ONB-nifc: UWAGA: w zbiorze: 1. Dance Cracovienne (skan 0003), 2. Danse (bez tytułu, skan 0004), 3. Mazur zgoda (0006-0007, do Adagio), 4. Adagio-Cracovienne (skan 0007-0008)
!!!AIN: 1 forte
!!!key:
**kern	**kern	**dynam
*part1	*part1	*part1
*staff2	*staff1	*
*Iforte	*Iforte	*
*I"[Piano-forte]	*I"[Piano-forte]	*
*clefF4	*clefG2	*
*k[f#c#]	*k[f#c#]	*
*D:	*D:	*
*M3/8	*M3/8	*
=1	=1	=1
*2\right	*2\right	*
!	!LO:TX:t=P:problem=all\right&colon; global	!
4A 4F# 4D\	4aaT>\	f
!	!LO:TUP:a:problem=klamra łukowa	!
8B 8G#X 8E#X 8D^^>\	24gg#X\LL	.
.	24aa\	.
.	24bb\JJ	.
=2	=2	=2
*rep	*	*
4A 4F# 4D\	4aaT>\	.
!	!LO:TUP:a:problem=klamra łukowa	!
8B 8G#X 8E#X 8D^^>\	24gg#X\LL	.
.	24aa\	.
.	24bb\JJ	.
*Xrep	*	*
=3	=3	=3
*rep	*	*
4A 4F# 4D\	4aaT>\	.
!	!LO:TUP:a:problem=klamra łukowa	!
8B 8G#X 8E#X 8D^^>\	24gg#X\LL	.
.	24aa\	.
.	24bb\JJ	.
*Xrep	*	*
=4	=4	=4
*rep	*	*
4A 4F# 4D\	4aaT>\	.
!	!LO:TUP:a:problem=klamra łukowa	!
8B 8G#X 8E#X 8D^^>\	24gg#X\LL	.
.	24aa\	.
.	24bb\JJ	.
*Xrep	*	*
!!LO:LB:g=original
=5!|:	=5!|:	=5!|:
!	!LO:TX:a:t=P:problem=znak segno	!
!	!LO:TX:t=[segno]	!
8AL 8F# 8D\	16.aa\LL	.
.	32ddd\JJk	.
8A 8F# 8D\	8ff#\L	.
8BJ 8G#X 8E#X 8D^^>\	8bbT>\J	.
=6	=6	=6
*tremolo	*	*
8AL 8F# 8D\	16.aa\LL	.
.	32ff#\JJk	.
8A 8F# 8D\	8dd\L	.
8AJ 8F# 8D\	(>8ff#t>\J	.
*Xtremolo	*	*
=7	=7	=7
16AA 16AAA/	8ee\L)	.
16r	.	.
8AL 8G 8E 8AA\	16.dd\L	.
.	32cc#\K	.
8AJ 8G 8E 8AA\	16.b\	.
.	32a\JJk	.
=8	=8	=8
8AL 8F# 8D\	8ff#L 8dd 8a^^>\	.
8A 8F# 8D\	8dd 8a 8f#^^>\	.
8AJ 8E 8AA\	8eeJ 8cc# 8a^^>\	.
=9	=9	=9
16D 16DD/	16.aaLL 16.ff# 16.dd 16.a\	.
16r	.	.
.	32dddJJk 32dd\	.
8AL 8F# 8D\	8ff#\L	.
8BJ 8G#X 8E#X 8D\	8bbT>\J	.
!!LO:LB:g=original
=10	=10	=10
*tremolo	*	*
8AL 8F# 8D\	16.aa\LL	.
.	32ff#\JJk	.
8A 8F# 8D\	8dd\L	.
8AJ 8F# 8D\	8ff#t>\J	.
*Xtremolo	*	*
=11	=11	=11
!	!LO:TUP:a	!
8c#L 8A 8E\	(>24ee\LL	.
.	24aa\	.
.	24ccc#\JJ	.
8c# 8A 8E\	16eee\)	.
.	16r	.
8dJ 8B 8E\	8gg#X^^>\	.
=12	=12	=12
16c# 16A\	(>32bb\KLL	.
.	16aa\JJ)	.
16r	.	.
.	32r	.
4A 4E 4AA\	4aa 4cc# 4a\	.
=13:|!|:	=13:|!|:	=13:|!|:
16B-X 16G 16D\	16ggLL 16ee|>\	.
16r	32r	.
.	(>32ggJJk 32ee\	.
4A 4G 4C#\	4a^^</)	.
=14	=14	=14
16B-X 16G 16D\	16ggLL 16ee|>\	.
16r	32r	.
.	(>32ggJJk 32ee\	.
4A 4G 4C#\	4a^^</)	.
!!LO:LB:g=original
=15	=15	=15
*tremolo	*	*
!	!	!LO:DY:b:rj
8AL 8F# 8D\	16.ddLL 16.d|>\	f
.	32eeK 32e|>\	.
8A 8F# 8D\	16ff# 16f#|>\	.
.	16gg 16g|>\	.
8AJ 8F# 8D\	16aa 16a|>\	.
.	16bbJJ 16b|>\	.
=16	=16	=16
8AL 8F# 8D\	4aaT>\	.
8A 8F# 8D\	.	.
8AJ 8F# 8D\	8ff#\	.
*Xtremolo	*	*
=17	=17	=17
16B-X 16G 16D|>\	16ggLL 16ee|>\	.
16r	32r	.
.	(>32ggJJk 32ee\	.
4A 4G 4C#\	4a^^>\)	.
=18	=18	=18
16B 16G 16D|>\	16ggLL 16ee|>\	.
16r	32r	.
.	(>32ggJJk 32ee\	.
4A 4G 4C#\	4a^^>\)	.
=19	=19	=19
*tremolo	*	*
8AL 8G 8E 8AA\	16.eeLL 16.cc#|>\	.
.	32ff#K 32dd|>\	.
8A 8G 8E 8AA\	16.gg 16.ee|>\	.
.	32aaK 32ff#|>\	.
8AJ 8G 8E 8AA\	16.bb 16.gg|>\	.
.	32ccc#JJk 32ee|>\	.
*Xtremolo	*	*
!!LO:LB:g=original
=20	=20	=20
16A 16F# 16D\	16ddd 16ff# 16dd\	.
16r	16r	.
8A 8F# 8D\	8dd 8d/	.
8r	8r	.
=21:|!|:	=21:|!|:	=21:|!|:
!LO:TX:t=P:problem=mixed beam	!LO:TX:b:i:t=dol.	!
8GG/L	(>8.bbL 8.dd\	.
8d\ 8B\ 8G\	.	.
.	16aa#XJk 16cc#X\	.
8d\J 8B\ 8G\	16bbLL 16dd\	.
.	16ggJJ 16b\)	.
=22	=22	=22
!	!LO:TUP:a	!
16e 16cn 16G^<\	(>24ee\LL	.
.	24ff#\	.
16r	.	.
.	24gg\JJ	.
4d 4B 4G\	4dd\)	.
=23	=23	=23
*^	*	*
!	!	!LO:TUP:a	!
4.D/	8D\L	(>24aaLL 24ccn\	.
.	.	24bb 24dd\	.
.	.	24aaJJ 24cc\	.
.	8d\	8ggL 8b\)	.
.	8d\J	8ff#J 8a\	.
!!LO:LB:g=original
=24	=24	=24	=24
4.G/	8G\L	16ggLL 16b|>\	.
.	.	32r	.
.	.	(>32eeJJk 32ccn\	.
.	8d\	4dd 4b\)	.
.	8d\J	.	.
*v	*v	*	*
=25	=25	=25
8GG/	(>8.bbL 8.dd\	.
8dL 8B 8G\	.	.
.	16aa#XJk 16cc#\	.
8dJ 8B 8G\	16bbLL 16dd\	.
.	16ggJJ 16b\)	.
=26	=26	=26
!	!LO:TUP:a:problem=kropka zamiast numeru	!
16e 16cn 16G^<\	(>24ee\LL	.
.	24ff#\	.
16r	.	.
.	24gg\JJ	.
4d 4B 4G\	4dd'>\)	.
=27	=27	=27
*^	*	*
!	!	!LO:TUP:a	!
4.D/	8D\L	(>24aaLL 24ccn\	.
.	.	24bb 24dd\	.
.	.	24aaJJ 24cc\	.
.	8d\	8ggL 8b\)	.
.	8d\J	8ff#J 8a\	.
*v	*v	*	*
=28	=28	=28
16GG/	16gg 16b\	.
16r	16r	.
8d 8B 8G\	8gg 8b 8g^<\	.
8r	8r	.
!!LO:PB:g=original
=29:|!|:	=29:|!|:	=29:|!|:
!	!	!LO:DY:b:rj
16AA 16AAA/	16.cc#LL 16.a 16.e/	f
16r	.	.
.	32cc#JJk 32a 32e/	.
8AL 8E 8C# 8AA\	8eeL 8cc# 8a\	.
8AJ 8E 8C# 8AA\	8aaJ 8ee 8cc# 8a\	.
=30	=30	=30
!	!LO:TUP:a	!
16D 16DD/	(>24ff#\LL	.
.	24gg\	.
16r	.	.
.	24ff#\JJ	.
8AL 8F# 8D\	8ee\L)	.
8AJ 8F# 8D\	8dd'>\J	.
=31	=31	=31
!	!LO:TUP:a	!
16GG 16GGG/	(>24ee\LL	.
.	24ff#\	.
16r	.	.
.	24ee\JJ	.
8GL 8E 8BB 8GG\	16.b\LL)	.
.	32ee|>\K	.
8GJ 8E 8AA\	16.cc#|>\	.
.	32a|>\JJk	.
=32	=32	=32
16D 16DD/	16.dd|>\LL	.
16r	.	.
.	32b|>\K	.
8AL 8F# 8D\	16.a|>\	.
.	32b|>\JK	.
8AJ 8F# 8D\	8a|>^^>\J	.
!!LO:LB:g=original
=33	=33	=33
16AA 16AAA/	16.cc#LL 16.a 16.e/	.
16r	.	.
.	32cc#JJk 32a 32e/	.
8AL 8E 8C# 8AA\	8eeL 8cc# 8a\	.
8AJ 8E 8C# 8AA\	8aaJ 8ee 8cc# 8a\	.
=34	=34	=34
!	!LO:TUP:a	!
16D 16DD/	(>24ff#\LL	.
.	24gg\	.
16r	.	.
.	24ff#\JJ	.
8AL 8F# 8D\	8ee\L)	.
8AJ 8F# 8D\	8dd'>\J	.
=35	=35	=35
!	!LO:TUP:a	!
16GG 16GGG/	(>24ee\LL	.
.	24ff#\	.
16r	.	.
.	24ee\JJ	.
8GL 8E 8BB 8GG\	16.b\LL)	.
.	32ee|>\K	.
8GJ 8E 8AA\	16.cc#|>\	.
.	32a|>\JJk	.
=36	=36	=36
16F# 16D\	(>32ee\KLL	.
.	16dd\JJ)	.
16r	.	.
.	32r	.
8D 8DD/	8ddd 8ff# 8dd\	.
8r	8r	.
!!LO:LB:g=original
=37:|!|:	=37:|!|:	=37:|!|:
!	!	!LO:DY:b:t=ffor:rj
8GL 8GG\	8ggL 8dd 8b 8g\	ff
8d 8B 8G\	8dd 8b 8g\	.
8eJ 8c#X 8A#X 8G^>\	8eeT>\J	.
=38	=38	=38
4d 4B 4G\	16dd\LL	.
.	16gg\J	.
.	8dd\	.
8e 8c# 8A#X 8G^<\	8eeT>\J	.
=39	=39	=39
*tremolo	*	*
8dL 8B 8G\	16.ggLL 16.g'>\	.
.	32aaK 32a'>\	.
8d 8B 8G\	16bb 16b'>\	.
.	16ccc# 16cc#'>\	.
8dJ 8B 8G\	16ddd 16dd'>\	.
.	16eeeJJ 16ee|>\	.
=40	=40	=40
8dL 8A 8F# 8D\	4dddT>\	.
8d 8A 8F# 8D\	.	.
8dJ 8A 8F# 8D\	8aa\	.
*Xtremolo	*	*
=41	=41	=41
8GL 8GG\	8ggL 8dd 8b 8g\	.
8d 8B 8G\	8dd 8b 8g\	.
8eJ 8c# 8A#X 8G^>\	8eeT>\J	.
!!LO:LB:g=original
=42	=42	=42
4d 4B 4G\	16dd\LL	.
.	16gg\J	.
.	8dd\	.
8e 8c# 8A#X 8G^>\	8eeT>\J	.
=43	=43	=43
.	(<8qdd/	.
8dL 8B 8G\	16.ddd\LL)	.
.	32cccn|>\JJk	.
8d 8B 8G\	16bb|>\LL	.
.	16aa|>\	.
8cnJ 8A 8D\	16gg|>\	.
.	16ff#|>\JJ	.
*kcancel	*kcancel	*
=44	=44	=44
16B 16G\	(>32aa\KLL	.
.	16gg\JJ)	.
16r	.	.
.	32r	.
8G 8GG/	8gg 8b 8g\	.
8r	8r	.
=45:|!|:	=45:|!|:	=45:|!|:
*k[b-e-]	*k[b-e-]	*
*B-:	*B-:	*
*tremolo	*	*
!	!	!LO:DY:b:rj
16BB-\LL	16.ddLL 16.b-\	p
16F\	.	.
.	32ccJJk 32a\	.
16BB-\	8ddL 8b-\	.
16F\	.	.
16BB-\	8ee-J 8cc\	.
16F\JJ	.	.
!!LO:LB:g=original
=46	=46	=46
16BB-\LL	16.ffLL 16.dd\	.
16F\	.	.
.	32ffJJk 32dd\	.
16BB-\	8ggL 8ee-\	.
16F\	.	.
16BB-\	8ffJ 8dd\	.
16F\JJ	.	.
=47	=47	=47
16FF\LL	16.ee-LL 16.cc\	.
16F\	.	.
.	32ee-JJk 32cc\	.
16FF\	8ffL 8dd\	.
16F\	.	.
16FF\	8ee-J 8cc\	.
16F\JJ	.	.
=48	=48	=48
16BB-\LL	16ddLL 16b-\	.
16F\	32r	.
.	32bb-JJk 32dd\	.
16BB-\	8.ffL 8.dd\	.
16F\	.	.
16BB-\	.	.
16F\JJ	16ee-Jk 16cc\	.
=49	=49	=49
.	(<8qee-/	.
16BB-\LL	16.ddLL 16.b-\)	.
16F\	.	.
.	32ccJJk 32a|>\	.
16BB-\	8ddL 8b-|>\	.
16F\	.	.
16BB-\	8ee-J 8cc|>\	.
16F\JJ	.	.
=50	=50	=50
16BB-\LL	16.eenLL 16.cc#X|>\	.
16F\	.	.
.	32ffJJk 32dd|>\	.
.	(>8qaa (<8qff/	.
16BB-\	8ggL 8ee-X\))	.
16F\	.	.
16BB-\	8ffJ 8dd'>\	.
16F\JJ	.	.
!!LO:LB:g=original
=51	=51	=51
16FF\LL	16.ddLL 16.bn|>\	.
16F\	.	.
.	32ee-JJk 32cc|>\	.
.	(>8qgg (<8qee-/	.
16FF\	8ffL 8dd\))	.
16F\	.	.
16FF\	8ee-J 8cc'>\	.
16F\JJ	.	.
*Xtremolo	*	*
=52	=52	=52
16BB-\LL	16.ddLL 16.b-\	.
16F\JJ	.	.
.	32ccJJk 32f\	.
!	!LO:TX:b:i:t=V&colon; S&colon;	!
!	!LO:TX:a:t=P:problem=źródło niekompletne	!
4BB-/	4b- 4d/	.
==	==	==
*-	*-	*-
!!!system-decoration: {(s1,s2)}
!!!RDF**kern: | = vertical stroke
!!!RDF**kern: > = above
!!!RDF**kern: < = below
!!!EED: Antoni Szymański
!!!EEV: 2021-06-26
!!!ENC: Mateusz Solarz
!!!END: 2021-06-15
!!!YEC: Copyright 2022 Narodowy Instytut Fryderyka Chopina (https://polishscores.org)
!!!YEM: Licence CC BY 4.0 (https://creativecommons.org/licenses/by/4.0)
